X: 19
T:Friendly Visit
R:hornpipe
M:4/4
L:1/8
K:G
BA|(3GFG DG BGBd|(3cBc AB cdef|g2dg ecAG|FGAB cAFD|
  |(3GFG DG BGBd|(3cBc AB cdef|gdBG FAdc|B2G2 G2:|
(3GBd|g2dB GBdg|e2cA FGAg|f2ed ^cdeg|f2 (3efe dcBA|
 |(3GFG DG BGBd|(3cBc AB cdef|gdBG FAdc|B2G2 G2:|
